X: 39223
T: Tá Mo Chleamhnas á Dhéanamh
R: barndance
M: 4/4
K: Dmajor
A,/B,/C|D2 DE F2 ED|d>d cd B3 B|A2 AF D2 DE|F2 ED B,3 C|D2 DE F2 ED|d>d cd B3 B|
A2 BA F2 D/E/F|E3 D D4||

